X: 1
T: the Star of the County Down   [Am]
O: Ireland, Scotland 1726
R: air, march
N: Also played in waltz time
N: This is also the tune for an older song, "My Love Nell"
B: Loesberg "Folksongs & Ballads Popular in Ireland"
M: C
L: 1/8
K: Am
EG | "Am"A2A2 "F"A2GA | "C"c2c2 "G"d2cd | "Am"e2dc [1 A2E2 | "Em"G6 :|2 "G"A2G2 | "Am"A6 |]
ef | "C"g2e2 e2dc | "G"d2d2 d2cd | "Am"e2dc A2A2 | "Em"G6 ||
EG | "Am"A2A2 "F"A2GA | "C"c2c2 "G"d2cd | "Am"e2dc "G"A2G2 | "Am"A6 |]
